svg/text_account.svg

<svg xmlns="http://www.w3.org/2000/svg" viewBox="0 0 24 24"><path d="M21 5v2H3V5zM3 17h9v-2H3zm0-5h18v-2H3zm15 2a2 2 0 1 1 0 4c-1.11 0-2-.89-2-2s.9-2 2-2m-4 8v-1c0-1.1 1.79-2 4-2s4 .9 4 2v1z"/></svg>

<?xml version="1.0" encoding="UTF-8"?><!DOCTYPE svg PUBLIC "-//W3C//DTD SVG 1.1//EN" "http://www.w3.org/Graphics/SVG/1.1/DTD/svg11.dtd"><svg xmlns="http://www.w3.org/2000/svg" xmlns:xlink="http://www.w3.org/1999/xlink" version="1.1" id="mdi-text-account" width="24" height="24" viewBox="0 0 24 24"><path d="M21 5V7H3V5H21M3 17H12V15H3V17M3 12H21V10H3V12M18 14C19.11 14 20 14.9 20 16S19.11 18 18 18 16 17.11 16 16 16.9 14 18 14M14 22V21C14 19.9 15.79 19 18 19S22 19.9 22 21V22H14Z" /></svg>
